public/static/scratch/assets/2ff9fac0adfb1da43f20d8658d969945.svg

<?xml version="1.0" encoding="UTF-8"?>
<svg width="100px" height="100px" viewBox="0 0 100 100" version="1.1" xmlns="http://www.w3.org/2000/svg" xmlns:xlink="http://www.w3.org/1999/xlink">
    <!-- Generator: Sketch 52.5 (67469) - http://www.bohemiancoding.com/sketch -->
    <title>Artboard</title>
    <desc>Created with Sketch.</desc>
    <defs>
        <polygon id="path-1" points="0.0773819927 0.0591620024 43.0809928 0.0591620024 43.0809928 53.4 0.0773819927 53.4"></polygon>
        <polygon id="path-3" points="0 2.26457147e-05 79.9774841 2.26457147e-05 79.9774841 86.3599383 0 86.3599383"></polygon>
        <polygon id="path-5" points="0 0 79.9775381 0 79.9775381 86.3597843 0 86.3597843"></polygon>
    </defs>
    <g id="Artboard" stroke="none" stroke-width="1" fill="none" fill-rule="evenodd">
        <g id="Group-10" transform="translate(10.000000, 5.000000)">
            <g id="Group-3" transform="translate(23.541147, 36.600000)">
                <mask id="mask-2" fill="white">
                    <use xlink:href="#path-1"></use>
                </mask>
                <g id="Clip-2"></g>
                <path d="M4.63585037,12.79694 L32.8754514,0.58334 C37.9151521,-1.59636 43.3992419,3.32564 43.0665736,9.72984 L41.2023342,45.61524 C40.8487182,52.42184 34.2680698,55.75654 29.5484688,51.52064 L3.17310723,27.84894 C-1.54659352,23.61304 -0.720558603,15.11364 4.63585037,12.79694" id="Fill-1" fill="#DCD7BE" mask="url(#mask-2)"></path>
            </g>
            <g id="Group-6">
                <mask id="mask-4" fill="white">
                    <use xlink:href="#path-3"></use>
                </mask>
                <g id="Clip-5"></g>
                <path d="M73.6861247,55.02448 L26.5566484,84.42288 C18.1457756,89.66938 7.10687282,83.69048 6.04293267,73.31228 L0.081436409,15.15888 C-1.04933666,4.12848 9.80682294,-3.50502 19.3070723,1.64048 L72.3979451,30.39548 C81.8980948,35.54098 82.6254763,49.44828 73.6861247,55.02448" id="Fill-4" fill="#DCD7BE" mask="url(#mask-4)"></path>
            </g>
            <g id="Group-9">
                <mask id="mask-6" fill="white">
                    <use xlink:href="#path-5"></use>
                </mask>
                <g id="Clip-8"></g>
                <path d="M72.3979451,30.39537 L19.3072718,1.64027 C9.80702244,-3.50483 -1.04923691,4.12847 0.081436409,15.15907 L6.04313217,73.31207 C7.10687282,83.69037 18.1460748,89.66917 26.5567481,84.42277 L39.779192,76.17487 L5.17969077,10.53917 C3.5444788,6.75717 8.09689776,3.33517 11.25999,5.96857 L65.9037805,59.87877 L73.6862244,55.02447 C82.6255761,49.44817 81.8980948,35.54097 72.3979451,30.39537" id="Fill-7" fill="#EDE7CC" mask="url(#mask-6)"></path>
            </g>
        </g>
    </g>
</svg>

<svg xmlns="http://www.w3.org/2000/svg" xmlns:xlink="http://www.w3.org/1999/xlink" width="100" height="100"><defs><path id="a" d="M.077.06h43.004V53.4H.077z"/><path id="c" d="M0 0h79.977v86.36H0z"/><path id="e" d="M0 0h79.978v86.36H0z"/></defs><g fill="none" fill-rule="evenodd"><g transform="translate(33.541 41.6)"><mask id="b" fill="#fff"><use xlink:href="#a"/></mask><path fill="#DCD7BE" d="M4.636 12.797 32.876.583c5.04-2.18 10.523 2.743 10.19 9.147l-1.864 35.885c-.353 6.807-6.934 10.142-11.654 5.906L3.173 27.849c-4.72-4.236-3.894-12.735 1.463-15.052" mask="url(#b)"/></g><g transform="translate(10 5)"><mask id="d" fill="#fff"><use xlink:href="#c"/></mask><path fill="#DCD7BE" d="m73.686 55.024-47.13 29.399c-8.41 5.246-19.45-.733-20.513-11.11L.08 15.158C-1.049 4.129 9.807-3.505 19.307 1.64l53.09 28.755c9.501 5.146 10.228 19.053 1.29 24.63" mask="url(#d)"/></g><g transform="translate(10 5)"><mask id="f" fill="#fff"><use xlink:href="#e"/></mask><path fill="#EDE7CC" d="M72.398 30.395 19.308 1.64C9.806-3.505-1.05 4.128.08 15.16l5.962 58.152C7.107 83.69 18.146 89.67 26.557 84.422l13.222-8.247-34.6-65.636C3.545 6.757 8.098 3.335 11.26 5.97l54.644 53.91 7.782-4.855c8.94-5.576 8.212-19.483-1.288-24.629" mask="url(#f)"/></g></g></svg>
